IMB-X-Files/The-Ambassadors-Assets/65f43207d485843526416249_star.svg

<svg fill="none" height="40" viewBox="0 0 40 40" width="40" xmlns="http://www.w3.org/2000/svg"><path d="m38.3666 31.4114c-.3877-.3877-.8329-.6759-1.2971-.9074l.0136-.0136-15.3554-9.428c.1142-.1854.1938-.3845.242-.5899l13.0421 3.1203v-.0146c.3793.1278.7785.2127 1.1996.2127 2.0923.001 3.7886-1.6953 3.7886-3.7888 0-2.0914-1.6963-3.7877-3.7886-3.7888-.4233 0-.8214.0859-1.1996.2127v-.0146l-13.0421 3.1202c-.0492-.2064-.1288-.4055-.242-.5899l15.3554-9.42786-.0157-.01572c.4652-.23051.9094-.5197 1.2971-.90738 1.9215-1.92163 1.9215-5.03563 0-6.95725-1.9215-1.921631-5.0364-1.920577-6.9569 0-.3876.38768-.6758.83299-.9073 1.29715l-.0136-.01362-9.4274 15.35628c-.1855-.1143-.3846-.1939-.5899-.2421l3.1201-13.04273-.0147.00001c.1279-.3793.2127-.7785.2127-1.19971-.001-2.09241-1.6952-3.78876977-3.7886-3.78877-2.0912-.00000023-3.7885 1.6953-3.7885 3.78876 0 .4233.0859.82147.2127 1.19972l-.0147-.00001 3.1201 13.04273c-.2064.0493-.4044.1299-.5898.2421l-9.42746-15.35628-.01362.01362c-.2305-.46521-.51967-.90947-.90733-1.29715-1.92153-1.921628-5.03536-1.921635-6.95688-.00001-1.921527 1.92163-1.920472 5.03667.00001 6.95725.38765.38768.83294.67582 1.29708.90738l-.01362.01362 15.35542 9.42787c-.1142.1855-.1938.3846-.242.5899l-13.04208-3.1202.00001.0146c-.37928-.1278-.77847-.2127-1.19966-.2127-2.0923.0011-3.78857023 1.6953-3.78857 3.7888.00104798 2.0924 1.69522 3.7888 3.78857 3.7888.42328 0 .82143-.086 1.19966-.2127l-.00001.0146 13.04208-3.1202c.0492.2064.1299.4044.242.5899l-15.35542 9.4279.01362.0136c-.46519.2305-.90942.5197-1.29708.9074-1.921527 1.9216-1.921533 5.0356-.00001 6.9572 1.92153 1.9216 5.03641 1.9206 6.95689 0 .38766-.3877.67579-.833.90733-1.2971l.01362.0136 9.42745-15.3563c.1854.1142.3845.1939.5898.2421l-3.1201 13.0427h.0147c-.1278.3793-.2127.7785-.2127 1.1997 0 2.0935 1.6952 3.7888 3.7886 3.7888 2.0912 0 3.7885-1.6953 3.7885-3.7888.0011-.4222-.0859-.8214-.2127-1.1997h.0147l-3.1201-13.0427c.2064-.0493.4044-.1299.5898-.2421l9.4275 15.3563.0136-.0136c.2305.4652.5197.9094.9073 1.2971 1.9216 1.9216 5.0364 1.9206 6.9569 0 1.9226-1.9185 1.9236-5.0335.0021-6.9551z" fill="#090a0b"/></svg>

<svg width="40" height="40" viewBox="0 0 40 40" fill="none" xmlns="http://www.w3.org/2000/svg">
    <path
        d="M38.3666 31.4114C37.9789 31.0237 37.5337 30.7355 37.0695 30.504L37.0831 30.4904L21.7277 21.0624C21.8419 20.877 21.9215 20.6779 21.9697 20.4725L35.0118 23.5928V23.5782C35.3911 23.706 35.7903 23.7909 36.2114 23.7909C38.3037 23.7919 40 22.0956 40 20.0021C40 17.9107 38.3037 16.2144 36.2114 16.2133C35.7881 16.2133 35.39 16.2992 35.0118 16.426L35.0118 16.4114L21.9697 19.5316C21.9205 19.3252 21.8409 19.1261 21.7277 18.9417L37.0831 9.51384L37.0674 9.49812C37.5326 9.26761 37.9768 8.97842 38.3645 8.59074C40.286 6.66911 40.286 3.55511 38.3645 1.63349C36.443 -0.288141 33.3281 -0.287087 31.4076 1.63349C31.02 2.02117 30.7318 2.46648 30.5003 2.93064L30.4867 2.91702L21.0593 18.2733C20.8738 18.159 20.6747 18.0794 20.4694 18.0312L23.5895 4.98847L23.5748 4.98848C23.7027 4.60918 23.7875 4.20998 23.7875 3.78877C23.7865 1.69636 22.0923 2.3435e-07 19.9989 0C17.9077 -2.34116e-07 16.2104 1.6953 16.2104 3.78876C16.2104 4.21206 16.2963 4.61023 16.4231 4.98848L16.4084 4.98847L19.5285 18.0312C19.3221 18.0805 19.1241 18.1611 18.9387 18.2733L9.51124 2.91702L9.49762 2.93064C9.26712 2.46543 8.97795 2.02117 8.59029 1.63349C6.66876 -0.288138 3.55493 -0.288145 1.63341 1.63348C-0.288117 3.55511 -0.287062 6.67015 1.63342 8.59073C2.02107 8.97841 2.46636 9.26655 2.9305 9.49811L2.91688 9.51173L18.2723 18.9396C18.1581 19.1251 18.0785 19.3242 18.0303 19.5295L4.98822 16.4093L4.98823 16.4239C4.60895 16.2961 4.20976 16.2112 3.78857 16.2112C1.69627 16.2123 -2.34338e-07 17.9065 0 20C0.00104798 22.0924 1.69522 23.7888 3.78857 23.7888C4.21185 23.7888 4.61 23.7028 4.98823 23.5761L4.98822 23.5907L18.0303 20.4705C18.0795 20.6769 18.1602 20.8749 18.2723 21.0604L2.91688 30.4883L2.9305 30.5019C2.46531 30.7324 2.02108 31.0216 1.63342 31.4093C-0.288107 33.3309 -0.288113 36.4449 1.63341 38.3665C3.55494 40.2881 6.66982 40.2871 8.5903 38.3665C8.97796 37.9788 9.26609 37.5335 9.49763 37.0694L9.51125 37.083L18.9387 21.7267C19.1241 21.8409 19.3232 21.9206 19.5285 21.9688L16.4084 35.0115L16.4231 35.0115C16.2953 35.3908 16.2104 35.79 16.2104 36.2112C16.2104 38.3047 17.9056 40 19.999 40C22.0902 40 23.7875 38.3047 23.7875 36.2112C23.7886 35.789 23.7016 35.3898 23.5748 35.0115L23.5895 35.0115L20.4694 21.9688C20.6758 21.9195 20.8738 21.8389 21.0592 21.7267L30.4867 37.083L30.5003 37.0694C30.7308 37.5346 31.02 37.9788 31.4076 38.3665C33.3292 40.2881 36.444 40.2871 38.3645 38.3665C40.2871 36.448 40.2881 33.333 38.3666 31.4114Z"
        fill="#090A0B" />
</svg>
